!!!OTL: ES HAETT EIN BIEDERMANN EIN WEIB
!!!ARE: Europa, Mitteleuropa, Deutschland
!!!SCT: E0150
!!!YEM: Copyright 1995, estate of Helmut Schaffrath.
**kern
*ICvox
*Ivox
*M6/4
*k[b-]
*F:
{4a
=1
2a
4a
2a
4a
=2
2a
4a
2a}
{4a
=3
2a
4a
2a
4f
=4
4.g
8a
4b-
4.a
8g
4f
=5
1g
4r}
{4g
=6
2g
4g
2g
4a
=7
2b-
4b-
2a}
{4a
=8
2g
4f
2f
4e
=9
1f
4r}
{4f
=10
2d
4d
2e
4e
=11
2f
4f
2f}
{4f
=12
2d
4d
2e
4e
=13
1f
4r}
==
!!!AGN: erzaehlendes Volks - Lied, Scherz, Schwank, betrogener Ehemann     Ballade ?
!!!ONB: ESAC (Essen Associative Code) Database: ERK1
!!!AMT: compound duple
!!!AIN: vox
!!!EED: Helmut Schaffrath
!!!EEV: 1.0
*-
!!!title: @{OTL} [@{SCT}]
